src/images/icon-favorite-sprite.svg

<svg width="28" height="112" viewBox="0 0 28 112" fill="none" xmlns="http://www.w3.org/2000/svg">
<path fill-rule="evenodd" clip-rule="evenodd" d="M6.99998 5.59998C6.22678 5.59998 5.59998 6.22678 5.59998 6.99998V21C5.59998 21.7732 6.22678 22.4 6.99998 22.4H21C21.7732 22.4 22.4 21.7732 22.4 21V6.99998C22.4 6.22678 21.7732 5.59998 21 5.59998H6.99998ZM14.0002 8.96003L18.3682 13.496H15.3379V19.04H12.526V13.496H9.6322L14.0002 8.96003Z" fill="#6B56E7"/>
<path fill-rule="evenodd" clip-rule="evenodd" d="M6.99998 50.4C6.22678 50.4 5.59998 49.7732 5.59998 49V35C5.59998 34.2268 6.22678 33.6 6.99998 33.6H21C21.7732 33.6 22.4 34.2268 22.4 35V49C22.4 49.7732 21.7732 50.4 21 50.4H6.99998ZM12.1981 40.7159V47.1307H9.80037V36.4H11.8522L16.168 42.752H16.2545V36.4H18.6601V47.1307H16.6161L12.2924 40.7159H12.1981Z" fill="#3FC2C2"/>
<path fill-rule="evenodd" clip-rule="evenodd" d="M6.99998 78.4C6.22678 78.4 5.59998 77.7732 5.59998 77V63C5.59998 62.2268 6.22678 61.6 6.99998 61.6H21C21.7732 61.6 22.4 62.2268 22.4 63V77C22.4 77.7732 21.7732 78.4 21 78.4H6.99998ZM14.0002 75.04L18.3682 70.504H15.3379V64.96H12.526V70.504H9.6322L14.0002 75.04Z" fill="#EC708E"/>
<path fill-rule="evenodd" clip-rule="evenodd" d="M6.99998 106.4C6.22678 106.4 5.59998 105.773 5.59998 105V91C5.59998 90.2268 6.22678 89.6 6.99998 89.6H21C21.7732 89.6 22.4 90.2268 22.4 91V105C22.4 105.773 21.7732 106.4 21 106.4H6.99998ZM20.3004 96.6H7.70037V100.1H20.3004V96.6Z" fill="#777777" fill-opacity="0.9"/>
</svg>

<svg xmlns="http://www.w3.org/2000/svg" width="28" height="112" fill="none" viewBox="0 0 28 112"><path fill="#6B56E7" fill-rule="evenodd" d="M7 5.6A1.4 1.4 0 0 0 5.6 7v14A1.4 1.4 0 0 0 7 22.4h14a1.4 1.4 0 0 0 1.4-1.4V7A1.4 1.4 0 0 0 21 5.6H7zm7 3.36l4.368 4.536h-3.03v5.544h-2.812v-5.544H9.632L14 8.96z" clip-rule="evenodd"/><path fill="#3FC2C2" fill-rule="evenodd" d="M7 50.4A1.4 1.4 0 0 1 5.6 49V35A1.4 1.4 0 0 1 7 33.6h14a1.4 1.4 0 0 1 1.4 1.4v14a1.4 1.4 0 0 1-1.4 1.4H7zm5.198-9.684v6.415H9.8V36.4h2.052l4.316 6.352h.087V36.4h2.405v10.73h-2.044l-4.324-6.414h-.094z" clip-rule="evenodd"/><path fill="#EC708E" fill-rule="evenodd" d="M7 78.4A1.4 1.4 0 0 1 5.6 77V63A1.4 1.4 0 0 1 7 61.6h14a1.4 1.4 0 0 1 1.4 1.4v14a1.4 1.4 0 0 1-1.4 1.4H7zm7-3.36l4.368-4.536h-3.03V64.96h-2.812v5.544H9.632L14 75.04z" clip-rule="evenodd"/><path fill="#777" fill-opacity=".9" fill-rule="evenodd" d="M7 106.4a1.4 1.4 0 0 1-1.4-1.4V91A1.4 1.4 0 0 1 7 89.6h14a1.4 1.4 0 0 1 1.4 1.4v14a1.4 1.4 0 0 1-1.4 1.4H7zm13.3-9.8H7.7v3.5h12.6v-3.5z" clip-rule="evenodd"/></svg>
